src/images/twitter.svg

<svg width="49" height="48" viewBox="0 0 49 48" fill="none" xmlns="http://www.w3.org/2000/svg">
<path d="M32.4526 20.0472C32.4613 20.2233 32.4648 20.3985 32.4648 20.5771C32.4648 25.9987 28.3377 32.25 20.7904 32.25C18.4719 32.25 16.3164 31.5711 14.5 30.4068C14.8225 30.4434 15.1485 30.4634 15.4788 30.4634C17.4033 30.4634 19.1701 29.8089 20.5743 28.7082C18.7796 28.6742 17.2639 27.4872 16.7427 25.8593C16.9928 25.9055 17.2491 25.9325 17.514 25.9325C17.8888 25.9325 18.2514 25.8811 18.594 25.7887C16.7191 25.4105 15.3036 23.7529 15.3036 21.7658V21.7144C15.8571 22.0221 16.4899 22.2051 17.1628 22.2269C16.0611 21.4922 15.3376 20.2355 15.3376 18.8123C15.3376 18.0602 15.5398 17.3552 15.8928 16.7495C17.9158 19.2324 20.9403 20.8647 24.3501 21.0355C24.2804 20.7357 24.2437 20.4229 24.2437 20.1013C24.2437 17.8354 26.0811 16 28.3473 16C29.5266 16 30.5934 16.4976 31.3421 17.2942C32.2756 17.1103 33.1542 16.7687 33.9483 16.2981C33.6406 17.2576 32.9912 18.0602 32.144 18.5683C32.9738 18.4707 33.7652 18.2485 34.5 17.9234C33.95 18.7461 33.2545 19.4686 32.4526 20.0472Z" fill="white"/>
</svg>

<svg width="49" height="48" fill="none" xmlns="http://www.w3.org/2000/svg"><path d="M32.453 20.047c.008.176.012.351.012.53 0 5.422-4.127 11.673-11.675 11.673-2.318 0-4.474-.679-6.29-1.843.322.036.649.056.979.056a8.225 8.225 0 005.095-1.755 4.109 4.109 0 01-3.831-2.849 4.146 4.146 0 001.851-.07 4.108 4.108 0 01-3.29-4.023v-.052a4.09 4.09 0 001.859.513 4.097 4.097 0 01-1.825-3.415c0-.752.202-1.457.555-2.063a11.644 11.644 0 008.457 4.287A4.102 4.102 0 0128.347 16a4.098 4.098 0 012.995 1.293 8.23 8.23 0 002.606-.996 4.118 4.118 0 01-1.804 2.27 8.18 8.18 0 002.356-.645 8.336 8.336 0 01-2.047 2.124z" fill="#fff"/></svg>
